X:15
T:Piper's Socks, The
R:jig
C:Henrik Norbeck
H:(#4) April 1991. Converted from Dmix to Hp May 1998
M:6/8
K:Hp
~A3 dcA|dcA ~G3|~A3 dcA|dag edc|~A3 dcA|dcA cde|gag edB|1 cAA A2G:|2 cAA A2B||
cee gee|aee ged|cee gee|aga ged|cee gee|aee geg|aba ged|cAA A2B|
~c3 gcc|acc ged|~c3 gcc|aga ged|~c3 gcc|acc geg|aba ged|cAA A2G||

